src/public/images/fog.svg

<svg viewBox="0 0 100 100" xmlns="http://www.w3.org/2000/svg" xmlns:xlink="http://www.w3.org/1999/xlink"><symbol id="b"><g fill="#999"><path d="M88.7 3H14.3c-.7 0-1.3-.7-1.3-1.5S13.6 0 14.3 0h74.4c.7 0 1.3.7 1.3 1.5S89.4 3 88.7 3zM75.7 11H1.3C.6 11 0 10.3 0 9.5S.6 8 1.3 8h74.4c.7 0 1.3.7 1.3 1.5s-.6 1.5-1.3 1.5zM86.7 19H12.3c-.7 0-1.3-.7-1.3-1.5s.6-1.5 1.3-1.5h74.4c.7 0 1.3.7 1.3 1.5s-.6 1.5-1.3 1.5z"/></g></symbol><symbol id="a"><path d="M55.7 5a23.94 23.94 0 0 0-21.33 13.05 9.9 9.9 0 0 0-12.78 5.56 15 15 0 0 0-1.71-.1A14.81 14.81 0 0 0 9.2 28 14.63 14.63 0 0 0 5 38.17v.21a14.83 14.83 0 0 0 14.88 14.68h55.71a14.3 14.3 0 0 0 3.67-28.14A23.93 23.93 0 0 0 55.7 5z"/><image x="5" y="14" width="85" height="43" xlink:href="data:image/png;base64,iVBORw0KGgoAAAANSUhEUgAAAFYAAAAkCAMAAAAkYj0PAAAABGdBTUEAALGPC/xhBQAAAAFzUkdCAK7OHOkAAAAVUExURSgoKExpcaCgoFBQUG5ublBQUISEhI1fsT0AAAAHdFJOUxsACBsPFRpGXuFgAAABWElEQVRIx7XV25bDIAgF0BMu/v8nF/E+iWlqHNKVN3cpIMXxL4GFM3SQfTazkUyxk63oLYwlVSy2silXkS/wUrZS2a3ZCn1zsdSw7UUYijuHsTa1IvfwWrbSXLkc4N9r27JViwmM1UtWXA3hohQ41m6vl8FQZi7wu2z7KXPW4uRiZS+2AmdXN7DdQEQWQHYHlt6z0dXBBa2xeeVktiZc1jDoF5eGkI4d4MjKc7cNbZ3bqjocLLx5oPDYTaIftcfvAvcs2GFxVsJTOP1wO1jGdUSLaz/DWA1Tl45+Tkqul2ArcPzayGq8JafOUffP3TUp6JQs+Rptc6vtmtBkUw+dv0NzWG0PYf8O7Ym09+ITXyXOPZqEX95aFe3PKxRsL2XV3HR+ZALirPSF0ceHp6F51WBv1A22VaW2GHWzWvat8LOAPf4CrjrA+neNK7+PQBf/DmmLrId09/QDWyESBsibwBUAAAAASUVORK5CYII="/></symbol><symbol id="c"><use xlink:href="#a" fill="#ddd" width="100" height="100" transform="translate(3 18)"/><use xlink:href="#b" width="100" height="100" transform="translate(0 76)"/></symbol><use xlink:href="#c" width="100" height="100"/></svg>

<svg x="0" y="0" viewBox="0 0 100 100" xmlns="http://www.w3.org/2000/svg" xmlns:xlink="http://www.w3.org/1999/xlink">
  <symbol id="fog">
    <g fill="#999999">
      <path d="M88.7,3H14.3C13.6,3,13,2.3,13,1.5S13.6,0,14.3,0h74.4C89.4,0,90,0.7,90,1.5S89.4,3,88.7,3z"></path>
      <path d="M75.7,11H1.3C0.6,11,0,10.3,0,9.5S0.6,8,1.3,8h74.4C76.4,8,77,8.7,77,9.5S76.4,11,75.7,11z"></path>
      <path d="M86.7,19H12.3c-0.7,0-1.3-0.7-1.3-1.5s0.6-1.5,1.3-1.5h74.4c0.7,0,1.3,0.7,1.3,1.5S87.4,19,86.7,19z"></path>
    </g>
  </symbol>
  <symbol id="cloud">
    <path d="M55.7,5A23.94,23.94,0,0,0,34.37,18.05a9.9,9.9,0,0,0-12.78,5.56,15,15,0,0,0-1.71-.1A14.81,14.81,0,0,0,9.2,28,14.63,14.63,0,0,0,5,38.17v.21A14.83,14.83,0,0,0,19.88,53.06H75.59a14.3,14.3,0,0,0,3.67-28.14A23.93,23.93,0,0,0,55.7,5Z"></path>
    <image x="5" y="14" width="85" height="43" xlink:href="data:image/png;base64,iVBORw0KGgoAAAANSUhEUgAAAFYAAAAkCAMAAAAkYj0PAAAABGdBTUEAALGPC/xhBQAAAAFzUkdCAK7OHOkAAAAVUExURSgoKExpcaCgoFBQUG5ublBQUISEhI1fsT0AAAAHdFJOUxsACBsPFRpGXuFgAAABWElEQVRIx7XV25bDIAgF0BMu/v8nF/E+iWlqHNKVN3cpIMXxL4GFM3SQfTazkUyxk63oLYwlVSy2silXkS/wUrZS2a3ZCn1zsdSw7UUYijuHsTa1IvfwWrbSXLkc4N9r27JViwmM1UtWXA3hohQ41m6vl8FQZi7wu2z7KXPW4uRiZS+2AmdXN7DdQEQWQHYHlt6z0dXBBa2xeeVktiZc1jDoF5eGkI4d4MjKc7cNbZ3bqjocLLx5oPDYTaIftcfvAvcs2GFxVsJTOP1wO1jGdUSLaz/DWA1Tl45+Tkqul2ArcPzayGq8JafOUffP3TUp6JQs+Rptc6vtmtBkUw+dv0NzWG0PYf8O7Ym09+ITXyXOPZqEX95aFe3PKxRsL2XV3HR+ZALirPSF0ceHp6F51WBv1A22VaW2GHWzWvat8LOAPf4CrjrA+neNK7+PQBf/DmmLrId09/QDWyESBsibwBUAAAAASUVORK5CYII="></image>
  </symbol>


  <symbol id="s15">
    <use xlink:href="#cloud" fill="#dddddd" x="0" y="0" width="100" height="100" transform="translate(3,18) scale(1,1)"></use>
    <use xlink:href="#fog"  x="0" y="0" width="100" height="100" transform="translate(0,76) scale(1,1)"></use>
  </symbol>
  <use xlink:href="#s15" x="0" y="0" width="100" height="100"></use>
</svg>
